common/src/main/resources/glyphs/gutter/siblingInheritedMethod.svg

<svg xmlns="http://www.w3.org/2000/svg" width="12" height="12" fill="#9575CD" viewBox="0 0 24 24"><path d="M9 2v6h2v3H5c-1.11 0-2 .89-2 2v3H1v6h6v-6H5v-3h6v3H9v6h6v-6h-2v-3h6v3h-2v6h6v-6h-2v-3c0-1.11-.89-2-2-2h-6V8h2V2z"/><path fill="#4DD0E1" d="M19.5 12h-3V5.25l-2.625 2.625L12.06 6.06 18 .12l5.94 5.94-1.815 1.815L19.5 5.25z"/></svg>

<!--
  - The MIT License (MIT)
  -
  - Copyright (c) 2015-2022 Elior "Mallowigi" Boukhobza
  -
  - Permission is hereby granted, free of charge, to any person obtaining a copy
  - of this software and associated documentation files (the "Software"), to deal
  - in the Software without restriction, including without limitation the rights
  - to use, copy, modify, merge, publish, distribute, sublicense, and/or sell
  - copies of the Software, and to permit persons to whom the Software is
  - furnished to do so, subject to the following conditions:
  -
  - The above copyright notice and this permission notice shall be included in all
  - copies or substantial portions of the Software.
  -
  - THE SOFTWARE IS PROVIDED "AS IS", WITHOUT WARRANTY OF ANY KIND, EXPRESS OR
  - IMPLIED, INCLUDING BUT NOT LIMITED TO THE WARRANTIES OF MERCHANTABILITY,
  - FITNESS FOR A PARTICULAR PURPOSE AND NONINFRINGEMENT. IN NO EVENT SHALL THE
  - AUTHORS OR COPYRIGHT HOLDERS BE LIABLE FOR ANY CLAIM, DAMAGES OR OTHER
  - LIABILITY, WHETHER IN AN ACTION OF CONTRACT, TORT OR OTHERWISE, ARISING FROM,
  - OUT OF OR IN CONNECTION WITH THE SOFTWARE OR THE USE OR OTHER DEALINGS IN THE
  - SOFTWARE.
  -
  -
  -->


<svg xmlns="http://www.w3.org/2000/svg" version="1.1" width="12px" height="12px" viewBox="0 0 24 24" fill="#9575CD">
  <path
    d="M9,2V8H11V11H5C3.89,11 3,11.89 3,13V16H1V22H7V16H5V13H11V16H9V22H15V16H13V13H19V16H17V22H23V16H21V13C21,11.89 20.11,11 19,11H13V8H15V2H9Z" />
  <path fill="#4DD0E1" transform="scale(0.75) translate(12 -4)"
        d="M14,20H10V11L6.5,14.5L4.08,12.08L12,4.16L19.92,12.08L17.5,14.5L14,11V20Z" />
</svg>
